svg/UnitedNationsOCHA-Humanitarian/food_NFI_nonfood_item_icon_box.svg

<svg xmlns="http://www.w3.org/2000/svg" viewBox="0 0 32 32" enable-background="new 0 0 32 32"><path fill="#407cca" d="m25.6 0h-19.2c-3.52 0-6.4 2.88-6.4 6.4v19.2c0 3.52 2.88 6.4 6.4 6.4h19.2c3.521 0 6.4-2.88 6.4-6.4v-19.2c0-3.52-2.88-6.4-6.4-6.4m-11.29 21.396h-3.17l-4.166-8.928v8.928h-2.174v-10.76h3.333l4.03 8.469v-8.469h2.144v10.76m8.965-9.02h-4.63v2.65h4.318v1.784h-4.318v4.585h-2.305v-10.744h6.935v1.725m3.925 9.02h-2.31v-10.792h2.31v10.792"/></svg>

<?xml version="1.0" encoding="utf-8"?>
<!-- Generator: Adobe Illustrator 16.0.3, SVG Export Plug-In . SVG Version: 6.00 Build 0)  -->
<!DOCTYPE svg PUBLIC "-//W3C//DTD SVG 1.1//EN" "http://www.w3.org/Graphics/SVG/1.1/DTD/svg11.dtd">
<svg version="1.1" id="Layer_1" xmlns="http://www.w3.org/2000/svg" xmlns:xlink="http://www.w3.org/1999/xlink" x="0px" y="0px"
	 width="32px" height="32px" viewBox="0 0 32 32" enable-background="new 0 0 32 32" xml:space="preserve">
<path fill="#407CCA" d="M25.6,0H6.4C2.88,0,0,2.88,0,6.4v19.2C0,29.12,2.88,32,6.4,32h19.2c3.521,0,6.4-2.88,6.4-6.4V6.4
	C32,2.88,29.12,0,25.6,0z M14.31,21.396h-3.17l-4.166-8.928v8.928H4.8v-10.76h3.333l4.033,8.469v-8.469h2.144V21.396z
	 M23.275,12.376h-4.63v2.65h4.318v1.784h-4.318v4.585h-2.305V10.651h6.935V12.376z M27.2,21.396h-2.31V10.604h2.31V21.396z"/>
</svg>
